svg/Filled/musical-note_filled.svg

<svg viewBox="0 0 24 24" xmlns="http://www.w3.org/2000/svg" width="24" height="24"><path d="M14.83 2.6a2.54 2.54 0 0 1 1.14 4.96l-3.37.9-.01.01-.23.12-.06.07q-.1.14-.1.32V19.7l-.02.18a2.3 2.3 0 0 1-1.4 1.97l-.17.06-.95.32a2.67 2.67 0 0 1-3.51-2.38v-.17a2.4 2.4 0 0 1 1.63-2.29l2.25-.76q.16-.05.26-.2l.05-.06.05-.24V5.01q0-.55.34-1l.08-.1q.33-.34.79-.47l3.07-.8z"/></svg>

<svg viewBox="0 0 24 24" xmlns="http://www.w3.org/2000/svg" width="24" height="24"><path d="M14.83 2.6A2.54 2.54 0 0 1 15.97 7.56L12.59 8.47L12.36 8.59L12.3 8.66Q12.2 8.8 12.2 8.98L12.18 19.88A2.3 2.3 0 0 1 10.78 21.85L9.66 22.23A2.67 2.67 0 0 1 6.15 19.85L6.15 19.68A2.4 2.4 0 0 1 7.78 17.39L10.03 16.63Q10.19 16.58 10.29 16.43L10.34 16.37L10.39 16.13L10.39 5.01Q10.39 4.46 10.73 4.01L10.81 3.91Q11.14 3.57 11.6 3.44L14.67 2.64Z"/></svg>
